pro/src/icons/stroke-barcode.svg

<svg width="48" height="48" viewBox="0 0 48 48" fill="none" xmlns="http://www.w3.org/2000/svg">
<g id="icon" fill="currentColor">
  <path d="M37.558 4H12.5606C10.854 4.00159 9.21566 4.68247 8.00816 5.89149C6.80208 7.09891 6.12196 8.73908 6.12037 10.4478V19.7845C6.12037 20.3461 6.57485 20.8026 7.13737 20.8026C7.6983 20.8026 8.15436 20.3461 8.15436 19.7845V10.4478C8.15754 8.01226 10.128 6.03973 12.5608 6.03647H37.5581C39.991 6.03965 41.963 8.0123 41.9662 10.4478V33.41C41.963 35.8456 39.991 37.8197 37.5581 37.823H28.6818C28.1209 37.823 27.6648 38.278 27.6648 38.8411C27.6648 39.4027 28.1209 39.8592 28.6818 39.8592H37.5581C39.2664 39.8561 40.9031 39.1768 42.1106 37.9678C43.3181 36.7587 43.9968 35.1202 44 33.4102V10.448C43.9968 8.73949 43.3183 7.09932 42.1106 5.89169C40.9029 4.68264 39.2661 4.00159 37.558 4Z"/>
  <path d="M7.79012 34.8496L6.82238 37.3297C6.34248 38.5689 6.3854 39.9498 6.94156 41.1556C7.49774 42.363 8.52108 43.2921 9.77483 43.728C10.2897 43.9046 10.8316 43.9968 11.3766 44C13.3788 43.9905 15.1744 42.7655 15.9132 40.9026L16.6299 39.0907H18.3413C19.8112 39.0891 21.1428 38.2253 21.745 36.8826L22.4236 35.3888H24.1302C25.3013 35.3904 26.3597 34.692 26.8221 33.615L29.9144 26.4197C30.2624 25.6083 30.1814 24.6761 29.6967 23.9379C29.212 23.1998 28.3889 22.756 27.507 22.7544H10.3104C8.3622 22.7544 6.52368 23.6548 5.32712 25.1963C4.13215 26.7362 3.71425 28.7423 4.19573 30.6323C4.67722 32.5222 6.00407 34.0845 7.79016 34.8625L7.79012 34.8496ZM14.0271 40.1581C13.6092 41.224 12.5954 41.9335 11.4513 41.9637C10.3088 41.9923 9.25841 41.3353 8.78486 40.2933C8.46387 39.5933 8.44162 38.7916 8.72289 38.0741L9.79073 35.3347C9.96712 35.349 10.1371 35.3872 10.3151 35.3872L15.9102 35.3888L14.0271 40.1581ZM19.894 36.0522C19.6207 36.6615 19.0152 37.0528 18.3462 37.0544H17.4421L18.1031 35.384H20.1927L19.894 36.0522ZM10.3167 24.7843L27.4991 24.7827C27.6977 24.7827 27.8836 24.8829 27.9933 25.0484C28.1013 25.2154 28.1204 25.4254 28.0425 25.6068L24.9502 32.8021C24.8088 33.1314 24.483 33.3462 24.1239 33.3446H10.3103C7.94734 33.3446 6.03075 31.4276 6.03075 29.0603C6.03075 26.6947 7.94713 24.776 10.3103 24.776L10.3167 24.7843Z"/>
  <path d="M30.1006 17.6301V11.8711C30.1006 11.3096 29.6445 10.853 29.0836 10.853C28.5226 10.853 28.0666 11.3096 28.0666 11.8711V17.6301C28.0666 18.1932 28.5226 18.6482 29.0836 18.6482C29.6445 18.6482 30.1006 18.1932 30.1006 17.6301Z"/>
  <path d="M24.1511 17.6301V11.8711C24.1511 11.3096 23.6967 10.853 23.1341 10.853C22.5732 10.853 22.1171 11.3096 22.1171 11.8711V17.6301C22.1171 18.1932 22.5732 18.6482 23.1341 18.6482C23.6967 18.6482 24.1511 18.1932 24.1511 17.6301Z"/>
  <path d="M18.2001 17.6301V11.8711C18.2001 11.3096 17.7456 10.853 17.1831 10.853C16.6222 10.853 16.1661 11.3096 16.1661 11.8711V17.6301C16.1661 18.1932 16.6222 18.6482 17.1831 18.6482C17.7456 18.6482 18.2001 18.1932 18.2001 17.6301Z"/>
  <path d="M35.0395 25.0246C35.6004 25.0246 36.0565 24.5696 36.0565 24.0065V11.8715C36.0565 11.31 35.6004 10.8534 35.0395 10.8534C34.477 10.8534 34.0225 11.31 34.0225 11.8715V24.0065C34.0225 24.2769 34.129 24.5362 34.3197 24.7271C34.5103 24.918 34.7694 25.0246 35.0395 25.0246Z"/>
  <path d="M34.0225 28.8454C34.0225 29.4086 34.477 29.8636 35.0395 29.8636C35.6004 29.8636 36.0565 29.4086 36.0565 28.8454V27.5075C36.0565 26.9444 35.6004 26.491 35.0395 26.491C34.477 26.491 34.0225 26.946 34.0225 27.5091V28.8454Z"/>
</g>
</svg>

<svg xmlns="http://www.w3.org/2000/svg" width="48" height="48" fill="none"><g id="icon" fill="currentColor"><path d="M37.558 4H12.561a6.45 6.45 0 0 0-4.553 1.891 6.46 6.46 0 0 0-1.888 4.557v9.337a1.017 1.017 0 1 0 2.034 0v-9.337a4.414 4.414 0 0 1 4.407-4.412h24.997a4.415 4.415 0 0 1 4.408 4.412V33.41a4.417 4.417 0 0 1-4.408 4.413h-8.876a1.018 1.018 0 0 0 0 2.036h8.876a6.45 6.45 0 0 0 4.553-1.891A6.47 6.47 0 0 0 44 33.41V10.448a6.46 6.46 0 0 0-1.89-4.556A6.44 6.44 0 0 0 37.559 4"/><path d="m7.79 34.85-.968 2.48a4.9 4.9 0 0 0 .12 3.826A4.89 4.89 0 0 0 11.377 44a4.905 4.905 0 0 0 4.536-3.097l.717-1.812h1.711a3.74 3.74 0 0 0 3.404-2.208l.679-1.494h1.706a2.93 2.93 0 0 0 2.692-1.774l3.092-7.195a2.625 2.625 0 0 0-2.407-3.665H10.31c-1.948 0-3.786.9-4.983 2.441a6.322 6.322 0 0 0 2.463 9.666zm6.237 5.308a2.845 2.845 0 0 1-5.242.135 2.84 2.84 0 0 1-.062-2.219l1.068-2.74c.176.015.346.053.524.053l5.595.002zm5.867-4.106c-.273.61-.879 1-1.548 1.002h-.904l.661-1.67h2.09zm-9.577-11.268 17.182-.001c.199 0 .385.1.494.265a.6.6 0 0 1 .05.559l-3.093 7.195a.9.9 0 0 1-.826.543H10.31a4.28 4.28 0 0 1-4.28-4.285 4.283 4.283 0 0 1 4.28-4.284zM30.1 17.63v-5.759c0-.561-.456-1.018-1.016-1.018-.561 0-1.017.457-1.017 1.018v5.76a1.017 1.017 0 1 0 2.034 0M24.151 17.63v-5.759a1.017 1.017 0 1 0-2.034 0v5.76a1.018 1.018 0 1 0 2.034 0M18.2 17.63v-5.759a1.018 1.018 0 1 0-2.034 0v5.76a1.018 1.018 0 1 0 2.034 0M35.04 25.025c.56 0 1.017-.455 1.017-1.018V11.87a1.018 1.018 0 1 0-2.034 0v12.135a1.02 1.02 0 0 0 1.016 1.019M34.023 28.845a1.017 1.017 0 1 0 2.033 0v-1.337a1.016 1.016 0 1 0-2.033.001z"/></g></svg>
